X: 9372
T: Dancing Tables
R: jig
M: 6/8
K: Amajor
|:~c3 BAe|cBB cAA|cec BAe|cAB ABc|
efa fea|fee c2B|efe cAA|1 BcB A2d:|2 BcB A2B||
|:cee fee|aee fee|dff =gff|dff afe|
cec BcB|ABA F2E|efe cAA|1 BcB A2B:|2 BcB A2d||

